X: 36352
T: Sean Maguire
R: reel
M: 4/4
K: Gmajor
Bd d/d/d ed^cd|gdBG D2 BG|Ae e/e/e fe^de|ae^cA E2 (3=cBA|
Bd d/^c/d ed B/=c/d|gdBG DGBG|e/f/e d/e/d c/d/c B/c/B|A/B/A GF G2:|
gb ~b2 gbdc|BdgB dG B/c/d|eA ~A2 eA B/c/d|eAaf g2 f/e/d|
g2 b/^a/b gbdG|B/c/d gB dGBd|~e2 d/e/d cdBc|A/B/A GF G2:|

